X: 33627
T: Ram, The
R: polka
M: 2/4
K: Amajor
|:a2 e>d|cA Ac|df ec|Be fg|
a2 e>d|cA Ae|fa ag|1 a2 eg:|2 a3 e||
fe a>e|fa ag|af ec|BA Ae|
fe a>e|fa ae|fa ab|g2 fg|
ab/a/ ga|fe ef/g/|af ec|BA FA|
A>B ce|fe af|ec Bc|Ae fg||

